X:49
M:6/8
L:1/8
K:B_
|:Bdf fdB|gfd c2B|Bdf g>ab|B>(3c/d/e/) c2B|Bdf fdB|gfd cBc|G3 FDF|

